X: 1640
T: Just One Girl
B: australian traditional tunes wiki
M:3/4
L:1/8
R: Waltz
Q: 1/4=100
K:D
V:1 
FG|:"D"A4zB|A4zc|d6-|d2c2FG|A4zB|A4zd|"A"c6-|c4B2|1
"A" A4zB|A4zB|A2G2E2|C2E2G2|"G"B4A2|B4E2|"D"D2F4-|F4FG:|2
"D"A4zB|A6|B2F2A2|"A7"G2F2c2|"D"d6|"A"c6|"D"d6-|d4||
% abcbook-tune_id 6342d53a7d3eb74d89bf8205


% abcbook-boost 0
% abcbook-tablature 
% abcbook-transpose 
% abcbook-lastupdated 1665324375521
% abcbook-soundfonts 
% abcbook-repeats 1
% NFF Book 2017
% Bush Traditions recording played by Ingrid Wangel

